public/images/facebook.svg

<svg width="108" height="108" viewBox="0 0 108 108" fill="none" xmlns="http://www.w3.org/2000/svg">
<g filter="url(#filter0_d_423_86)">
<path d="M101.999 49.6907C101.882 40.1036 99.0446 30.7498 93.8207 22.7308C88.5968 14.7119 81.2047 8.3618 72.5145 4.42843C63.8236 0.495058 54.1971 -0.85776 44.7681 0.529206C35.3392 1.91623 26.5005 5.98525 19.2929 12.2573C12.0854 18.5292 6.80915 26.7428 4.08563 35.9308C1.36218 45.1188 1.3048 54.8983 3.92038 64.1181C6.53595 73.3379 11.7155 81.6132 18.849 87.9704C25.9825 94.3276 34.7729 98.5014 44.1849 100V64.3433H31.6846V49.6907H44.1849V38.5597C43.8955 35.9717 44.1743 33.3511 45.0018 30.8832C45.8293 28.4153 47.185 26.1602 48.9732 24.277C50.7614 22.3938 52.9383 20.9285 55.3509 19.9845C57.7634 19.0405 60.3529 18.6407 62.9355 18.8135C66.6843 18.8651 70.4244 19.2015 74.1233 19.8197V32.397H67.8731C66.7956 32.2602 65.7005 32.3689 64.6705 32.715C63.6399 33.061 62.6998 33.6356 61.9198 34.3963C61.1398 35.157 60.5398 36.0843 60.1641 37.1096C59.7879 38.1352 59.646 39.2326 59.7479 40.3206V49.8164H73.6233L71.3732 64.469H59.8104V99.6856C71.6226 97.8059 82.3741 91.7285 90.1144 82.5559C97.8546 73.3832 102.071 61.7234 101.999 49.6907Z" fill="white"/>
</g>
<defs>
<filter id="filter0_d_423_86" x="0" y="0" width="108" height="108" filterUnits="userSpaceOnUse" color-interpolation-filters="sRGB">
<feFlood flood-opacity="0" result="BackgroundImageFix"/>
<feColorMatrix in="SourceAlpha" type="matrix" values="0 0 0 0 0 0 0 0 0 0 0 0 0 0 0 0 0 0 127 0" result="hardAlpha"/>
<feOffset dx="2" dy="4"/>
<feGaussianBlur stdDeviation="2"/>
<feColorMatrix type="matrix" values="0 0 0 0 0 0 0 0 0 0 0 0 0 0 0 0 0 0 0.25 0"/>
<feBlend mode="normal" in2="BackgroundImageFix" result="effect1_dropShadow_423_86"/>
<feBlend mode="normal" in="SourceGraphic" in2="effect1_dropShadow_423_86" result="shape"/>
</filter>
</defs>
</svg>

<svg fill="none" xmlns="http://www.w3.org/2000/svg" viewBox="0 0 108 108">
<g filter="url(#a)"><path d="M101.999 49.69a50.53 50.53 0 0 0-8.178-26.96A50.1 50.1 0 0 0 72.515 4.429 49.73 49.73 0 0 0 44.768.53a49.86 49.86 0 0 0-25.475 11.728A50.34 50.34 0 0 0 4.086 35.931a50.6 50.6 0 0 0-.166 28.187A50.35 50.35 0 0 0 18.85 87.97 49.87 49.87 0 0 0 44.185 100V64.343h-12.5V49.691h12.5V38.56c-.29-2.588-.01-5.209.817-7.677a17.8 17.8 0 0 1 3.971-6.606 17.7 17.7 0 0 1 6.378-4.292 17.6 17.6 0 0 1 7.584-1.171c3.75.051 7.49.387 11.188 1.006v12.577h-6.25a7.2 7.2 0 0 0-3.203.318 7.24 7.24 0 0 0-2.75 1.681 7.3 7.3 0 0 0-1.756 2.714 7.3 7.3 0 0 0-.416 3.21v9.496h13.875l-2.25 14.653H59.81v35.217a49.93 49.93 0 0 0 30.304-17.13A50.5 50.5 0 0 0 102 49.69" fill="#fff"/>
</g>
<defs>
<filter id="a" x="0" y="0" width="108" height="108" filterUnits="userSpaceOnUse" color-interpolation-filters="sRGB">
<feFlood flood-opacity="0" result="BackgroundImageFix"/><feColorMatrix in="SourceAlpha" values="0 0 0 0 0 0 0 0 0 0 0 0 0 0 0 0 0 0 127 0" result="hardAlpha"/>
<feOffset dx="2" dy="4"/><feGaussianBlur stdDeviation="2"/><feColorMatrix values="0 0 0 0 0 0 0 0 0 0 0 0 0 0 0 0 0 0 0.25 0"/>
<feBlend in2="BackgroundImageFix" result="effect1_dropShadow_423_86"/><feBlend in="SourceGraphic" in2="effect1_dropShadow_423_86" result="shape"/>
</filter>
</defs>
</svg>
